icon-themes/sifr_svg/cmd/sc_flowchartshapes.flowchart-preparation.svg

<svg viewBox="0 0 16 16" xmlns="http://www.w3.org/2000/svg"><g fill="#555753"><path d="m4.5 2h7l2.5 6-2.5 6h-7l-2.5-6z" opacity=".35"/><path d="m3.8339844 1-.2578125.6152344-2.66015628 6.3847656 2.91796878 7h8.3320316l2.917968-7-2.917968-7zm1.3339844 2h5.6660152l2.082032 5-2.082032 5h-5.6679684l-2.0820312-5z"/></g></svg>

<svg xmlns="http://www.w3.org/2000/svg" viewBox="0 0 16 16">
  <path
     style="fill:#555753;opacity:0.35"
     d="m 4.5,2 h 7 L 14,8 v 0 l -2.5,6 h -7 L 2,8 v 0 z"
     />
  <path
     style="fill:#555753"
     d="M 3.8339844,1 3.5761719,1.6152344 0.91601562,8 3.8339844,15 H 12.166016 L 15.083984,8 12.166016,1 Z m 1.3339844,2 h 5.6660152 l 2.082032,5 -2.082032,5 H 5.1660156 L 3.0839844,8 Z"
     />
</svg>
